X:1
T: The Little Drummers
C:
R:Jig
Q:180
K:D
M:6/8
L:1/16
|:dc|B2E2E2 B2E2E2|F2D2D2 D2F2A2|B2E2E2 B2E2E2|A2B2c2 d2c2d2|
B2E2E2 B2E2E2|F2D2D2 D2F2A2|A2B2c2 d4F2|F2E2E2 E4:|
|:e2|e2B2B2 e2B2B2|A2B2c2 d2c2d2|e2B2B2 e2B2B2|A2B2c2 d4e2|
e2B2B2 e2B2B2|A2B2c2 d2c2d2|A2D2A2 d4F2|F2E2E2 E4:|
